pages/full-stack-developers/improve-your-skills-with-tutorials.svg

<?xml version="1.0" encoding="UTF-8"?>
<svg width="250px" height="356px" viewBox="0 0 250 356" version="1.1" xmlns="http://www.w3.org/2000/svg" xmlns:xlink="http://www.w3.org/1999/xlink">
    <!-- Generator: Sketch 41.2 (35397) - http://www.bohemiancoding.com/sketch -->
    <title>improve-your-skills-with-tutorials</title>
    <desc>Created with Sketch.</desc>
    <defs></defs>
    <g id="Page-1" stroke="none" stroke-width="1" fill="none" fill-rule="evenodd">
        <g id="improve-your-skills-with-tutorials" fill="#FFFFFF">
            <path d="M133.458333,112.710417 L131.379861,127.902083 C130.997917,130.695833 132.183333,133.473611 134.463889,135.13125 C135.795833,136.098611 137.374306,136.593056 138.963194,136.593056 C140.095833,136.593056 141.235417,136.340972 142.292361,135.830556 L156.097917,129.160417 L169.903472,135.830556 C172.442361,137.057639 175.448611,136.788889 177.73125,135.13125 C180.011806,133.473611 181.197223,130.696527 180.815278,127.903472 L178.7375,112.711806 L189.347222,101.642361 C191.298611,99.6069442 191.972917,96.6631942 191.101389,93.9819442 C190.229861,91.3006942 187.954861,89.3152775 185.179861,88.8152775 L170.090277,86.0972225 L162.840972,72.5854167 C161.508333,70.1006944 158.917361,68.5506944 156.097222,68.5506944 C153.277083,68.5506944 150.686806,70.1013889 149.353473,72.5854167 L142.104167,86.0972225 L127.014583,88.8152775 C124.240278,89.3152775 121.964583,91.3006942 121.09375,93.9819442 C120.222223,96.6631942 120.896528,99.6076392 122.847917,101.642361 L133.458333,112.710417 Z M148.457639,100.503472 C150.75625,100.088889 152.740972,98.6479167 153.844444,96.5895833 L156.097222,92.3902775 L158.35,96.5895833 C159.453473,98.6472225 161.438194,100.088889 163.736806,100.503472 L168.426389,101.348611 L165.128472,104.788889 C163.5125,106.475694 162.754167,108.807639 163.070833,111.121527 L163.716667,115.842361 L159.426389,113.769444 C158.375,113.261111 157.236111,113.006944 156.096528,113.006944 C154.956944,113.006944 153.818056,113.261111 152.766667,113.769444 L148.476389,115.841667 L149.122917,111.121527 C149.438889,108.806944 148.68125,106.475 147.065278,104.788889 L143.767361,101.347917 L148.457639,100.503472 Z" id="Shape"></path>
            <path d="M66.1763889,94.9173608 L101.7625,94.9173608 C105.988194,94.9173608 109.415278,91.4909725 109.415278,87.2645833 C109.415278,83.0381944 105.988194,79.6118056 101.7625,79.6118056 L66.1763889,79.6118056 C61.9506944,79.6118056 58.5236111,83.0381944 58.5236111,87.2645833 C58.5236111,91.4909725 61.9506944,94.9173608 66.1763889,94.9173608 Z" id="Shape"></path>
            <path d="M66.1763889,125.529167 L101.7625,125.529167 C105.988194,125.529167 109.415278,122.102777 109.415278,117.876389 C109.415278,113.65 105.988194,110.223611 101.7625,110.223611 L66.1763889,110.223611 C61.9506944,110.223611 58.5236111,113.65 58.5236111,117.876389 C58.5236111,122.102777 61.9506944,125.529167 66.1763889,125.529167 Z" id="Shape"></path>
            <path d="M133.458333,192.231944 L131.379861,207.423611 C130.997917,210.216667 132.183333,212.995139 134.463889,214.652083 C136.745139,216.310417 139.752083,216.578472 142.292361,215.351389 L156.097917,208.68125 L169.903472,215.351389 C170.961111,215.861806 172.098611,216.113889 173.232639,216.113889 C174.821528,216.113889 176.400694,215.619444 177.731944,214.652083 C180.0125,212.994444 181.197917,210.217361 180.815972,207.423611 L178.738194,192.231944 L189.347917,181.1625 C191.299306,179.127083 191.973611,176.183333 191.102083,173.502083 C190.230556,170.820833 187.955556,168.835417 185.180556,168.335417 L170.090973,165.617361 L162.841667,152.105556 C161.509028,149.620833 158.918056,148.070833 156.097917,148.070833 C153.277778,148.070833 150.6875,149.621527 149.354167,152.105556 L142.104861,165.617361 L127.015278,168.335417 C124.240973,168.835417 121.965277,170.820833 121.094444,173.502083 C120.222917,176.183333 120.897222,179.127777 122.848611,181.1625 L133.458333,192.231944 Z M148.457639,180.025694 C150.75625,179.611111 152.740972,178.170139 153.844444,176.111806 L156.097222,171.9125 L158.35,176.111806 C159.453473,178.169444 161.438194,179.611806 163.736806,180.025694 L168.426389,180.870833 L165.128472,184.311111 C163.5125,185.997917 162.754167,188.329861 163.070833,190.64375 L163.716667,195.365277 L159.426389,193.292361 C158.375,192.784027 157.236111,192.529861 156.096528,192.529861 C154.956944,192.529861 153.818056,192.784027 152.766667,193.292361 L148.476389,195.364583 L149.122917,190.64375 C149.438889,188.329861 148.68125,185.997222 147.065278,184.311111 L143.767361,180.870139 L148.457639,180.025694 Z" id="Shape"></path>
            <path d="M66.1763889,174.440277 L101.7625,174.440277 C105.988194,174.440277 109.415278,171.013889 109.415278,166.7875 C109.415278,162.561111 105.988194,159.134722 101.7625,159.134722 L66.1763889,159.134722 C61.9506944,159.134722 58.5236111,162.561111 58.5236111,166.7875 C58.5236111,171.013889 61.9506944,174.440277 66.1763889,174.440277 Z" id="Shape"></path>
            <path d="M66.1763889,205.051389 L101.7625,205.051389 C105.988194,205.051389 109.415278,201.625 109.415278,197.398611 C109.415278,193.172222 105.988194,189.745833 101.7625,189.745833 L66.1763889,189.745833 C61.9506944,189.745833 58.5236111,193.172222 58.5236111,197.398611 C58.5236111,201.625 61.9506944,205.051389 66.1763889,205.051389 Z" id="Shape"></path>
            <path d="M133.458333,271.755556 L131.379861,286.946528 C130.997917,289.739583 132.183333,292.518056 134.463889,294.175 C135.795833,295.143056 137.374306,295.636806 138.963194,295.636806 C140.095833,295.636806 141.235417,295.384722 142.292361,294.874306 L156.097917,288.204167 L169.903472,294.874306 C172.442361,296.101389 175.45,295.831944 177.73125,294.175 C180.0125,292.518056 181.197222,289.740277 180.815277,286.946528 L178.7375,271.754861 L189.347222,260.686111 C191.298611,258.650694 191.972917,255.706944 191.101389,253.025694 C190.229861,250.344444 187.955556,248.358333 185.180556,247.859027 L170.089583,245.140277 L162.840277,231.628472 C161.507639,229.14375 158.916667,227.59375 156.096527,227.59375 C153.276389,227.59375 150.686111,229.144444 149.352777,231.628472 L142.103472,245.140277 L127.013889,247.859027 C124.238889,248.359027 121.963889,250.34375 121.093056,253.025694 C120.221527,255.706944 120.895833,258.650694 122.847222,260.686111 L133.458333,271.755556 Z M148.459027,259.547222 C150.757639,259.133333 152.741667,257.692361 153.845139,255.633333 L156.097917,251.434028 L158.350694,255.633333 C159.454167,257.690972 161.4375,259.132639 163.736806,259.547222 L168.427083,260.392361 L165.129167,263.831944 C163.513194,265.518056 162.754861,267.85 163.071528,270.164583 L163.717361,274.886111 L159.427083,272.813194 C158.375694,272.304861 157.236806,272.050694 156.097222,272.050694 C154.957639,272.050694 153.81875,272.304861 152.767361,272.813194 L148.477083,274.886111 L149.123611,270.165278 C149.439583,267.851389 148.681944,265.51875 147.065972,263.832639 L143.768056,260.392361 L148.459027,259.547222 Z" id="Shape"></path>
            <path d="M66.1763889,253.9625 L101.7625,253.9625 C105.988194,253.9625 109.415278,250.536111 109.415278,246.309722 C109.415278,242.083333 105.988194,238.656944 101.7625,238.656944 L66.1763889,238.656944 C61.9506944,238.656944 58.5236111,242.083333 58.5236111,246.309722 C58.5236111,250.536111 61.9506944,253.9625 66.1763889,253.9625 Z" id="Shape"></path>
            <path d="M66.1763889,284.573611 L101.7625,284.573611 C105.988194,284.573611 109.415278,281.147222 109.415278,276.920833 C109.415278,272.694444 105.988194,269.268056 101.7625,269.268056 L66.1763889,269.268056 C61.9506944,269.268056 58.5236111,272.694444 58.5236111,276.920833 C58.5236111,281.147222 61.9506944,284.573611 66.1763889,284.573611 Z" id="Shape"></path>
            <path d="M242.020139,11.4791667 L188.136111,11.4791667 L188.136111,7.65277777 C188.136111,3.42638889 184.709027,1.70530257e-13 180.483333,1.70530257e-13 L69.5173611,1.70530257e-13 C65.2916667,1.70530257e-13 61.8645833,3.42638889 61.8645833,7.65277777 L61.8645833,11.4791667 L7.97986111,11.4791667 C3.75416667,11.4791667 0.327083333,14.9055556 0.327083333,19.1319444 L0.327083333,347.902777 C0.327083333,352.129167 3.75416667,355.555556 7.97986111,355.555556 L242.020139,355.555556 C246.245833,355.555556 249.672917,352.129167 249.672917,347.902777 L249.672917,19.1319444 C249.672917,14.9055556 246.247223,11.4791667 242.020139,11.4791667 Z M77.1701389,15.3055556 L172.830556,15.3055556 L172.830556,42.0902777 L77.1701389,42.0902777 L77.1701389,15.3055556 Z M203.75625,57.3965277 L203.75625,309.638194 L46.24375,309.638194 L46.24375,57.3965277 L203.75625,57.3965277 Z M234.367361,340.25 L15.6326389,340.25 L15.6326389,26.7847222 L61.8645833,26.7847222 L61.8645833,42.0902777 L38.5916667,42.0902777 C34.3659723,42.0902777 30.9388889,45.5166667 30.9388889,49.7430556 L30.9388889,317.290972 C30.9388889,321.517361 34.3659723,324.94375 38.5916667,324.94375 L211.409028,324.94375 C215.634723,324.94375 219.061806,321.517361 219.061806,317.290972 L219.061806,49.74375 C219.061806,45.5173611 215.634723,42.0909722 211.409028,42.0909722 L188.136806,42.0909722 L188.136806,26.7847222 L234.368056,26.7847222 L234.368056,340.25 L234.367361,340.25 Z" id="Shape"></path>
        </g>
    </g>
</svg>

<svg width="250" height="356" viewBox="0 0 250 356" xmlns="http://www.w3.org/2000/svg"><title>improve-your-skills-with-tutorials</title><g fill="#FFF" fill-rule="evenodd"><path d="M133.458 112.71l-2.078 15.192a7.656 7.656 0 0 0 7.583 8.691 7.654 7.654 0 0 0 3.33-.762l13.805-6.67 13.805 6.67a7.652 7.652 0 0 0 10.912-7.928l-2.077-15.191 10.61-11.07a7.652 7.652 0 0 0-4.168-12.827l-15.09-2.718-7.249-13.512a7.651 7.651 0 0 0-13.488 0l-7.249 13.512-15.09 2.718a7.653 7.653 0 0 0-4.166 12.827l10.61 11.068zm15-12.207a7.653 7.653 0 0 0 5.386-3.913l2.253-4.2 2.253 4.2a7.655 7.655 0 0 0 5.387 3.913l4.69.846-3.299 3.44a7.655 7.655 0 0 0-2.057 6.333l.646 4.72-4.29-2.073a7.646 7.646 0 0 0-6.66 0l-4.29 2.073.646-4.72a7.655 7.655 0 0 0-2.058-6.333l-3.298-3.441 4.69-.845zM66.176 94.917h35.587a7.653 7.653 0 0 0 0-15.305H66.175a7.653 7.653 0 0 0 0 15.305zM66.176 125.53h35.587a7.653 7.653 0 0 0 0-15.306H66.175a7.653 7.653 0 0 0 0 15.305zM133.458 192.232l-2.078 15.192a7.655 7.655 0 0 0 10.912 7.927l13.806-6.67 13.805 6.67a7.652 7.652 0 0 0 10.913-7.927l-2.078-15.192 10.61-11.07a7.652 7.652 0 0 0-4.167-12.827l-15.09-2.718-7.25-13.511a7.651 7.651 0 0 0-13.487 0l-7.25 13.511-15.089 2.718a7.653 7.653 0 0 0-4.166 12.827l10.61 11.07zm15-12.206a7.653 7.653 0 0 0 5.386-3.914l2.253-4.2 2.253 4.2a7.653 7.653 0 0 0 5.387 3.914l4.69.845-3.299 3.44a7.655 7.655 0 0 0-2.057 6.333l.646 4.721-4.29-2.073a7.646 7.646 0 0 0-6.66 0l-4.29 2.073.646-4.721a7.656 7.656 0 0 0-2.058-6.333l-3.298-3.44 4.69-.845zM66.176 174.44h35.587a7.653 7.653 0 0 0 0-15.305H66.175a7.653 7.653 0 0 0 0 15.305zM66.176 205.051h35.587a7.653 7.653 0 0 0 0-15.305H66.175a7.653 7.653 0 0 0 0 15.305zM133.458 271.756l-2.078 15.19a7.655 7.655 0 0 0 10.912 7.928l13.806-6.67 13.805 6.67a7.653 7.653 0 0 0 10.912-7.927l-2.077-15.192 10.61-11.069a7.652 7.652 0 0 0-4.167-12.827l-15.091-2.719-7.25-13.512a7.651 7.651 0 0 0-13.487 0l-7.25 13.512-15.09 2.719a7.65 7.65 0 0 0-4.166 12.827l10.611 11.07zm15.001-12.209a7.648 7.648 0 0 0 5.386-3.914l2.253-4.199 2.253 4.2a7.652 7.652 0 0 0 5.386 3.913l4.69.845-3.298 3.44a7.653 7.653 0 0 0-2.057 6.333l.645 4.721-4.29-2.073a7.646 7.646 0 0 0-6.66 0l-4.29 2.073.647-4.72a7.656 7.656 0 0 0-2.058-6.333l-3.298-3.44 4.691-.846zM66.176 253.963h35.587a7.653 7.653 0 0 0 0-15.306H66.175a7.653 7.653 0 0 0 0 15.305zM66.176 284.574h35.587a7.653 7.653 0 0 0 0-15.306H66.175a7.653 7.653 0 0 0 0 15.306z"/><path d="M242.02 11.48h-53.884V7.652A7.653 7.653 0 0 0 180.483 0H69.517a7.653 7.653 0 0 0-7.652 7.653v3.826H7.98a7.653 7.653 0 0 0-7.653 7.653v328.77a7.653 7.653 0 0 0 7.653 7.654h234.04a7.653 7.653 0 0 0 7.653-7.653V19.132a7.652 7.652 0 0 0-7.653-7.653zM77.17 15.305h95.66V42.09H77.17V15.306zm126.586 42.09v252.242H46.244V57.397h157.512zm30.611 282.854H15.633V26.785h46.232V42.09H38.592a7.653 7.653 0 0 0-7.653 7.653v267.548a7.653 7.653 0 0 0 7.653 7.653h172.817a7.653 7.653 0 0 0 7.653-7.653V49.744a7.653 7.653 0 0 0-7.653-7.653h-23.272V26.785h46.231V340.25z"/></g></svg>
